storage/app/icons/phosphoricons/bold/kanban-bold.svg

<svg xmlns="http://www.w3.org/2000/svg" fill="currentColor" viewBox="0 0 256 256"><path d="M216 44H40a12 12 0 0 0-12 12v152a20 20 0 0 0 20 20h40a20 20 0 0 0 20-20v-44h40v12a20 20 0 0 0 20 20h40a20 20 0 0 0 20-20V56a12 12 0 0 0-12-12m-12 64h-32V68h32ZM84 68v40H52V68Zm0 136H52v-72h32Zm24-64V68h40v72Zm64 32v-40h32v40Z"/></svg>

<svg xmlns="http://www.w3.org/2000/svg" viewBox="0 0 256 256" fill="currentColor"><path d="M216,44H40A12,12,0,0,0,28,56V208a20,20,0,0,0,20,20H88a20,20,0,0,0,20-20V164h40v12a20,20,0,0,0,20,20h40a20,20,0,0,0,20-20V56A12,12,0,0,0,216,44Zm-12,64H172V68h32ZM84,68v40H52V68Zm0,136H52V132H84Zm24-64V68h40v72Zm64,32V132h32v40Z"/></svg>
